X:820
T: Rattle the Peas
T: Croith na Piseanna
S: B.Breathnach:"Ceol Rince na hEireann" IV/72
Z: B.Black
L: 1/8
M: 12/8
Q: 360
R: jig
K: D
A2G FAF EGE F3|A2G FAF EGE F2D|
A2G FAF EGE F3|ABc d2A A2G F2D :|
ABc d3 ABc d3|ABc d2e f2d e2c|
A2B c3 A2B c3|ABc d2A B2G F2D :|
